;FLAVOR:Marlin
;TIME:1277
;Filament used: 1.26521m
;Layer height: 0.32
;MINX:91.043
;MINY:101.5
;MINZ:0.12
;MAXX:143.957
;MAXY:133.5
;MAXZ:10.04
;POSTPROCESSED
;Generated with Cura_SteamEngine 5.2.2
M140 S50
M105
M190 S50
M104 S200
M105
M109 S200
M82 ;absolute extrusion mode
; Ender 3 Custom Start G-code
G92 E0 ; Reset Extruder
G28 ; Home all axes
G1 Z2.0 F3000 ; Move Z Axis up little to prevent scratching of Heat Bed
G1 X0.1 Y20 Z0.3 F5000.0 ; Move to start position
G1 X0.1 Y200.0 Z0.3 F1500.0 E15 ; Draw the first line
G1 X0.4 Y200.0 Z0.3 F5000.0 ; Move to side a little
G1 X0.4 Y20 Z0.3 F1500.0 E30 ; Draw the second line
G92 E0 ; Reset Extruder
G1 Z2.0 F3000 ; Move Z Axis up little to prevent scratching of Heat Bed
G1 X5 Y20 Z0.3 F5000.0 ; Move over to prevent blob squish
G92 E0
G92 E0
G1 F2700 E-5
;LAYER_COUNT:32
;LAYER:0
M107
G0 F6000 X94.929 Y104.127 Z0.12
;TYPE:SKIRT
G1 F2700 E0
G1 F1200 X95.669 Y103.551 E0.01871
G1 X96.455 Y103.039 E0.03743
G1 X97.282 Y102.597 E0.05615
G1 X98.144 Y102.227 E0.07487
G1 X99.034 Y101.931 E0.09358
G1 X99.946 Y101.713 E0.1123
G1 X100.873 Y101.572 E0.13101
G1 X101.744 Y101.513 E0.14843
G1 X102.373 Y101.5 E0.16099
G1 X132.408 Y101.501 E0.76037
G1 X133.106 Y101.511 E0.7743
G1 X134.042 Y101.565 E0.79301
G1 X134.97 Y101.697 E0.81171
G1 X135.884 Y101.909 E0.83044
G1 X136.776 Y102.198 E0.84915
G1 X137.641 Y102.561 E0.86787
G1 X138.471 Y102.997 E0.88658
G1 X139.262 Y103.502 E0.90531
G1 X140.006 Y104.073 E0.92402
G1 X140.699 Y104.705 E0.94274
G1 X141.336 Y105.393 E0.96145
G1 X141.911 Y106.134 E0.98017
G1 X142.422 Y106.92 E0.99888
G1 X142.864 Y107.748 E1.01761
G1 X143.233 Y108.61 E1.03632
G1 X143.528 Y109.5 E1.05503
G1 X143.746 Y110.412 E1.07374
G1 X143.886 Y111.34 E1.09247
G1 X143.944 Y112.201 E1.10969
G1 X143.957 Y112.83 E1.12225
G1 X143.956 Y121.9 E1.30325
G1 X143.947 Y122.627 E1.31776
G1 X143.896 Y123.564 E1.33649
G1 X143.764 Y124.492 E1.35519
G1 X143.555 Y125.406 E1.3739
G1 X143.268 Y126.299 E1.39262
G1 X142.906 Y127.165 E1.41135
G1 X142.472 Y127.996 E1.43006
G1 X141.968 Y128.787 E1.44878
G1 X141.399 Y129.532 E1.46749
G1 X140.768 Y130.227 E1.48622
G1 X140.081 Y130.865 E1.50493
G1 X139.342 Y131.442 E1.52364
G1 X138.556 Y131.954 E1.54236
G1 X137.73 Y132.397 E1.56106
G1 X136.868 Y132.769 E1.5798
G1 X135.979 Y133.065 E1.5985
G1 X135.067 Y133.285 E1.61722
G1 X134.14 Y133.426 E1.63593
G1 X133.256 Y133.487 E1.65361
G1 X132.627 Y133.5 E1.66617
G1 X102.608 Y133.499 E2.26523
G1 X101.91 Y133.49 E2.27916
G1 X100.974 Y133.438 E2.29787
G1 X100.045 Y133.306 E2.31659
G1 X99.131 Y133.096 E2.33531
G1 X98.238 Y132.809 E2.35403
G1 X97.373 Y132.446 E2.37275
G1 X96.542 Y132.012 E2.39146
G1 X95.751 Y131.508 E2.41017
G1 X95.006 Y130.938 E2.42889
G1 X94.312 Y130.307 E2.44761
G1 X93.675 Y129.62 E2.46631
G1 X93.098 Y128.88 E2.48504
G1 X92.586 Y128.094 E2.50376
G1 X92.143 Y127.267 E2.52248
G1 X91.772 Y126.406 E2.54119
G1 X91.476 Y125.516 E2.5599
G1 X91.257 Y124.604 E2.57862
G1 X91.116 Y123.677 E2.59733
G1 X91.056 Y122.788 E2.61512
G1 X91.043 Y122.158 E2.62769
G1 X91.044 Y113.025 E2.80995
G1 X91.053 Y112.36 E2.82322
G1 X91.106 Y111.424 E2.84193
G1 X91.238 Y110.495 E2.86066
G1 X91.449 Y109.581 E2.87937
G1 X91.737 Y108.689 E2.89808
G1 X92.1 Y107.824 E2.9168
G1 X92.535 Y106.993 E2.93552
G1 X93.039 Y106.203 E2.95422
G1 X93.609 Y105.458 E2.97294
G1 X94.241 Y104.764 E2.99167
G1 X94.929 Y104.127 E3.01038
G0 F6000 X95.317 Y104.323
G1 F1200 X96.053 Y103.77 E3.02875
G1 X96.834 Y103.282 E3.04713
G1 X97.654 Y102.864 E3.0655
G1 X98.508 Y102.519 E3.08388
G1 X99.388 Y102.249 E3.10225
G1 X100.288 Y102.057 E3.12061
G1 X101.202 Y101.943 E3.13899
G1 X101.755 Y101.913 E3.15005
G1 X102.373 Y101.9 E3.16238
G1 X132.25 Y101.9 E3.75861
G1 X133.1 Y101.911 E3.77557
G1 X134.019 Y101.964 E3.79394
G1 X134.93 Y102.097 E3.81232
G1 X135.826 Y102.308 E3.83069
G1 X136.7 Y102.596 E3.84905
G1 X137.547 Y102.959 E3.86744
G1 X138.358 Y103.394 E3.88581
G1 X139.128 Y103.898 E3.90417
G1 X139.852 Y104.467 E3.92255
G1 X140.524 Y105.097 E3.94093
G1 X141.139 Y105.782 E3.9593
G1 X141.692 Y106.518 E3.97767
G1 X142.179 Y107.299 E3.99604
G1 X142.596 Y108.12 E4.01442
G1 X142.941 Y108.974 E4.0328
G1 X143.21 Y109.854 E4.05116
G1 X143.402 Y110.755 E4.06954
G1 X143.515 Y111.668 E4.0879
G1 X143.544 Y112.212 E4.09877
G1 X143.557 Y112.83 E4.11111
G1 X143.556 Y121.895 E4.29201
G1 X143.547 Y122.622 E4.30652
G1 X143.496 Y123.541 E4.32489
G1 X143.365 Y124.453 E4.34328
G1 X143.155 Y125.349 E4.36164
G1 X142.869 Y126.224 E4.38001
G1 X142.508 Y127.071 E4.39839
G1 X142.074 Y127.883 E4.41676
G1 X141.572 Y128.655 E4.43514
G1 X141.004 Y129.38 E4.45352
G1 X140.376 Y130.053 E4.47189
G1 X139.692 Y130.669 E4.49026
G1 X138.957 Y131.223 E4.50862
G1 X138.177 Y131.712 E4.52699
G1 X137.357 Y132.131 E4.54537
G1 X136.504 Y132.477 E4.56374
G1 X135.624 Y132.748 E4.58212
G1 X134.724 Y132.941 E4.60048
G1 X133.81 Y133.056 E4.61887
G1 X133.245 Y133.087 E4.63016
G1 X132.627 Y133.1 E4.6425
G1 X102.613 Y133.099 E5.24146
G1 X101.915 Y133.09 E5.25539
G1 X100.996 Y133.038 E5.27376
G1 X100.085 Y132.907 E5.29212
G1 X99.189 Y132.697 E5.31049
G1 X98.314 Y132.41 E5.32887
G1 X97.467 Y132.048 E5.34725
G1 X96.655 Y131.614 E5.36562
G1 X95.884 Y131.112 E5.38398
G1 X95.159 Y130.544 E5.40236
G1 X94.486 Y129.915 E5.42074
G1 X93.871 Y129.231 E5.4391
G1 X93.317 Y128.496 E5.45747
G1 X92.829 Y127.715 E5.47585
G1 X92.41 Y126.895 E5.49422
G1 X92.064 Y126.042 E5.51259
G1 X91.794 Y125.162 E5.53096
G1 X91.601 Y124.261 E5.54935
G1 X91.487 Y123.348 E5.56771
G1 X91.456 Y122.777 E5.57912
G1 X91.443 Y122.158 E5.59148
G1 X91.444 Y113.031 E5.77362
G1 X91.453 Y112.366 E5.78689
G1 X91.505 Y111.446 E5.80528
G1 X91.637 Y110.535 E5.82365
G1 X91.848 Y109.639 E5.84202
G1 X92.135 Y108.764 E5.8604
G1 X92.498 Y107.918 E5.87877
G1 X92.932 Y107.106 E5.89714
G1 X93.435 Y106.335 E5.91551
G1 X94.004 Y105.611 E5.93389
G1 X94.632 Y104.939 E5.95224
G1 X95.317 Y104.323 E5.97063
G0 F6000 X95.705 Y104.524
G1 F1200 X96.437 Y103.994 E5.98866
G1 X97.212 Y103.531 E6.00668
G1 X98.025 Y103.138 E6.0247
G1 X98.87 Y102.818 E6.04273
G1 X99.739 Y102.575 E6.06074
G1 X100.627 Y102.409 E6.07876
G1 X101.766 Y102.313 E6.10158
G1 X102.373 Y102.3 E6.11369
G1 X132.25 Y102.3 E6.70992
G1 X133.094 Y102.311 E6.72676
G1 X133.996 Y102.364 E6.7448
G1 X134.889 Y102.496 E6.76281
G1 X135.767 Y102.707 E6.78083
G1 X136.623 Y102.995 E6.79885
G1 X137.45 Y103.357 E6.81687
G1 X138.242 Y103.792 E6.8349
G1 X138.993 Y104.294 E6.85293
G1 X139.696 Y104.861 E6.87095
G1 X140.346 Y105.488 E6.88897
G1 X140.938 Y106.17 E6.907
G1 X141.468 Y106.901 E6.92502
G1 X141.93 Y107.677 E6.94304
G1 X142.323 Y108.49 E6.96106
G1 X142.641 Y109.335 E6.97908
G1 X142.884 Y110.205 E6.9971
G1 X143.049 Y111.093 E7.01513
G1 X143.144 Y112.223 E7.03776
G1 X143.157 Y112.83 E7.04987
G1 X143.156 Y121.89 E7.23067
G1 X143.147 Y122.617 E7.24518
G1 X143.096 Y123.519 E7.26321
G1 X142.965 Y124.413 E7.28124
G1 X142.756 Y125.291 E7.29926
G1 X142.47 Y126.148 E7.31728
G1 X142.109 Y126.976 E7.33531
G1 X141.677 Y127.768 E7.35331
G1 X141.176 Y128.52 E7.37135
G1 X140.61 Y129.224 E7.38937
G1 X139.985 Y129.875 E7.40738
G1 X139.304 Y130.469 E7.42542
G1 X138.573 Y131 E7.44345
G1 X137.799 Y131.464 E7.46146
G1 X136.986 Y131.858 E7.47948
G1 X136.142 Y132.178 E7.4975
G1 X135.272 Y132.423 E7.51553
G1 X134.385 Y132.589 E7.53354
G1 X133.234 Y132.687 E7.5566
G1 X132.627 Y132.7 E7.56871
G1 X102.618 Y132.699 E8.16757
G1 X101.92 Y132.69 E8.1815
G1 X101.019 Y132.639 E8.19951
G1 X100.125 Y132.507 E8.21755
G1 X99.247 Y132.298 E8.23556
G1 X98.39 Y132.011 E8.25359
G1 X97.563 Y131.65 E8.2716
G1 X96.77 Y131.217 E8.28963
G1 X96.019 Y130.716 E8.30765
G1 X95.315 Y130.15 E8.32567
G1 X94.664 Y129.524 E8.3437
G1 X94.071 Y128.843 E8.36172
G1 X93.541 Y128.112 E8.37974
G1 X93.077 Y127.337 E8.39776
G1 X92.683 Y126.524 E8.41579
G1 X92.363 Y125.68 E8.43381
G1 X92.119 Y124.81 E8.45184
G1 X91.953 Y123.922 E8.46986
G1 X91.856 Y122.767 E8.493
G1 X91.843 Y122.158 E8.50515
G1 X91.844 Y113.036 E8.68719
G1 X91.853 Y112.371 E8.70046
G1 X91.905 Y111.469 E8.71849
G1 X92.037 Y110.576 E8.73651
G1 X92.247 Y109.698 E8.75452
G1 X92.534 Y108.841 E8.77256
G1 X92.896 Y108.014 E8.79057
G1 X93.329 Y107.222 E8.80859
G1 X93.831 Y106.471 E8.82661
G1 X94.398 Y105.767 E8.84465
G1 X95.024 Y105.117 E8.86266
G1 X95.705 Y104.524 E8.88068
G1 F2700 E3.88068
;MESH:CNC_v3_03_TensorCorrejaH_TEST.stl
G0 F6000 X102.457 Y111.835
G0 X102.457 Y112.914
G0 X103.615 Y120.928
G0 X116.39 Y121.099
;TYPE:WALL-INNER
G1 F2700 E8.88068
G1 F1116.3 X116.83 Y121.069 E8.89014
G1 F1083.5 X117.505 Y121.088 E8.90507
G1 F1076.2 X118.244 Y121.066 E8.92152
G1 F1100.9 X118.61 Y121.097 E8.92951
G1 F1194 X131.557 Y121.1 E9.18917
G1 F1200 X131.557 Y117.5 E9.26101
G1 X131.557 Y113.9 E9.33286
G1 X118.61 Y113.901 E9.59123
G1 F1116.3 X118.17 Y113.931 E9.60069
G1 F1083.5 X117.495 Y113.912 E9.61561
G1 F1076.2 X116.756 Y113.934 E9.63206
G1 F1100.9 X116.39 Y113.903 E9.64005
G1 F1194 X103.443 Y113.9 E9.89972
G1 F1200 X103.443 Y121.1 E10.0434
G1 X116.39 Y121.099 E10.30177
G0 F6000 X116.859 Y120.609
G1 F1116.3 X116.511 Y120.485 E10.3097
G1 F1200 X116.09 Y120.313 E10.31877
G1 X115.766 Y120.126 E10.32624
G1 X115.406 Y119.846 E10.33534
G1 X115.154 Y119.595 E10.34244
G1 X114.875 Y119.234 E10.35154
G1 X114.687 Y118.91 E10.35902
G1 X114.514 Y118.489 E10.3681
G1 X114.421 Y118.139 E10.37533
G1 X114.346 Y117.568 E10.38682
G1 X114.361 Y117.317 E10.39184
G1 X114.421 Y116.861 E10.40102
G1 X114.514 Y116.511 E10.40824
G1 X114.687 Y116.09 E10.41733
G1 X114.875 Y115.766 E10.4248
G1 X115.154 Y115.405 E10.43391
G1 X115.406 Y115.154 E10.44101
G1 X115.766 Y114.874 E10.45011
G1 X116.09 Y114.687 E10.45757
G1 F1106 X116.796 Y114.397 E10.4741
G1 F1066.7 X117.308 Y114.346 E10.48565
G1 F1098.4 X117.566 Y114.335 E10.49128
G1 F1061.9 X118.141 Y114.391 E10.50431
G1 F1116.3 X118.489 Y114.515 E10.51223
G1 F1200 X118.91 Y114.687 E10.52131
G1 X119.234 Y114.874 E10.52877
G1 X119.594 Y115.154 E10.53788
G1 X119.846 Y115.405 E10.54497
G1 X120.125 Y115.766 E10.55408
G1 X120.313 Y116.09 E10.56155
G1 X120.486 Y116.511 E10.57064
G1 X120.579 Y116.861 E10.57786
G1 X120.639 Y117.317 E10.58704
G1 X120.65 Y117.5 E10.5907
G1 X120.639 Y117.683 E10.59436
G1 X120.579 Y118.139 E10.60354
G1 X120.486 Y118.489 E10.61076
G1 X120.313 Y118.91 E10.61985
G1 X120.125 Y119.234 E10.62732
G1 X119.846 Y119.595 E10.63643
G1 X119.594 Y119.846 E10.64353
G1 X119.234 Y120.126 E10.65263
G1 X118.91 Y120.313 E10.66009
G1 F1106 X118.204 Y120.603 E10.67662
G1 F1066.7 X117.692 Y120.654 E10.68817
G1 F1098.4 X117.434 Y120.665 E10.6938
G1 F1061.9 X116.859 Y120.609 E10.70683
G0 F6000 X116.663 Y120.115
G1 F1200 X116.242 Y119.943 E10.7159
G1 X116.011 Y119.809 E10.72123
G1 X115.65 Y119.53 E10.73034
G1 X115.47 Y119.35 E10.73542
G1 X115.191 Y118.989 E10.74452
G1 X115.057 Y118.758 E10.74985
G1 X114.884 Y118.337 E10.75894
G1 X114.818 Y118.087 E10.7641
G1 X114.741 Y117.5 E10.77591
G1 X114.818 Y116.913 E10.78772
G1 X114.884 Y116.663 E10.79288
G1 X115.057 Y116.242 E10.80197
G1 X115.191 Y116.011 E10.8073
G1 X115.47 Y115.65 E10.8164
G1 X115.65 Y115.47 E10.82148
G1 X116.011 Y115.191 E10.83059
G1 X116.242 Y115.057 E10.83592
G1 X116.784 Y114.836 E10.8476
G1 X117.363 Y114.758 E10.85926
G1 X117.625 Y114.757 E10.86448
G1 X118.085 Y114.817 E10.87374
G1 X118.337 Y114.885 E10.87895
G1 X118.758 Y115.057 E10.88803
G1 X118.989 Y115.191 E10.89336
G1 X119.35 Y115.47 E10.90246
G1 X119.53 Y115.65 E10.90754
G1 X119.809 Y116.011 E10.91665
G1 X119.943 Y116.242 E10.92197
G1 X120.116 Y116.663 E10.93106
G1 X120.182 Y116.913 E10.93622
G1 X120.242 Y117.369 E10.9454
G1 X120.25 Y117.5 E10.94802
G1 X120.242 Y117.631 E10.95063
G1 X120.182 Y118.087 E10.95981
G1 X120.116 Y118.337 E10.96497
G1 X119.943 Y118.758 E10.97406
G1 X119.809 Y118.989 E10.97939
G1 X119.53 Y119.35 E10.98849
G1 X119.35 Y119.53 E10.99357
G1 X118.989 Y119.809 E11.00268
G1 X118.758 Y119.943 E11.008
G1 X118.216 Y120.164 E11.01969
G1 X117.637 Y120.242 E11.03134
G1 X117.375 Y120.243 E11.03657
G1 X116.915 Y120.183 E11.04583
G1 X116.663 Y120.115 E11.05104
G0 F6000 X117.503 Y119.856
G1 F1200 X116.892 Y119.776 E11.06334
G1 X116.324 Y119.544 E11.07558
G1 X115.832 Y119.164 E11.08799
G1 X115.457 Y118.679 E11.10022
G1 X115.225 Y118.113 E11.11243
G1 X115.15 Y117.5 E11.12475
G1 X115.225 Y116.887 E11.13708
G1 X115.457 Y116.321 E11.14928
G1 X115.832 Y115.836 E11.16152
G1 X116.324 Y115.456 E11.17392
G1 X116.889 Y115.225 E11.18611
G1 X117.497 Y115.144 E11.19835
G1 X118.108 Y115.224 E11.21064
G1 X118.676 Y115.456 E11.22289
G1 X119.168 Y115.836 E11.23529
G1 X119.543 Y116.321 E11.24753
G1 X119.775 Y116.887 E11.25973
G1 X119.85 Y117.5 E11.27206
G1 X119.775 Y118.113 E11.28438
G1 X119.543 Y118.679 E11.29659
G1 X119.168 Y119.164 E11.30883
G1 X118.676 Y119.544 E11.32123
G1 X118.111 Y119.775 E11.33341
G1 X117.503 Y119.856 E11.34565
G0 F6000 X117.506 Y119.452
;TYPE:WALL-OUTER
G1 F1200 X116.993 Y119.386 E11.35597
G1 X116.522 Y119.193 E11.36613
G1 X116.119 Y118.881 E11.3763
G1 X115.807 Y118.478 E11.38647
G1 X115.615 Y118.01 E11.39657
G1 X115.547 Y117.5 E11.40684
G1 X115.615 Y116.99 E11.4171
G1 X115.807 Y116.522 E11.4272
G1 X116.119 Y116.119 E11.43737
G1 X116.523 Y115.806 E11.44757
G1 X117.009 Y115.612 E11.45801
G1 X117.494 Y115.548 E11.46777
G1 X118.007 Y115.614 E11.4781
G1 X118.478 Y115.807 E11.48825
G1 X118.881 Y116.119 E11.49842
G1 X119.193 Y116.522 E11.5086
G1 X119.386 Y116.99 E11.5187
G1 X119.45 Y117.5 E11.52896
G1 X119.386 Y118.01 E11.53921
G1 X119.193 Y118.478 E11.54932
G1 X118.881 Y118.881 E11.55949
G1 X118.477 Y119.194 E11.56968
G1 X117.991 Y119.388 E11.58013
G1 X117.506 Y119.452 E11.58989
G0 F6000 X117.416 Y120.145
G0 X116.869 Y120.843
G0 X116.599 Y120.896
G0 X103.043 Y121.5
;TYPE:WALL-INNER
G1 F1200 X131.957 Y121.5 E12.1669
G1 X131.957 Y117.5 E12.24672
G1 X131.957 Y113.5 E12.32655
G1 X103.043 Y113.5 E12.90356
G1 X103.043 Y121.5 E13.06321
G0 F6000 X102.643 Y121.9
G1 F1200 X132.357 Y121.9 E13.65618
G1 X132.357 Y117.5 E13.74399
G1 X132.357 Y113.1 E13.8318
G1 X102.643 Y113.1 E14.42477
G1 X102.643 Y121.9 E14.60038
G0 F6000 X102.243 Y122.3
;TYPE:WALL-OUTER
G1 F1200 X132.757 Y122.3 E15.20932
G1 X132.757 Y117.5 E15.30511
G1 X132.757 Y112.7 E15.4009
G1 X102.243 Y112.7 E16.00984
G1 X102.243 Y122.3 E16.20142
G0 F6000 X102.513 Y122.03
G0 X116.175 Y121
G0 X116.175 Y120.739
;TYPE:SKIN
G1 F1200 X115.934 Y120.638 E16.20664
G1 X115.54 Y120.407 E16.21575
G1 X115.175 Y120.126 E16.22494
G1 X114.876 Y119.823 E16.23344
G1 X114.594 Y119.46 E16.24261
G1 X114.35 Y119.041 E16.25229
G1 X114.174 Y118.607 E16.26163
G1 X114.068 Y118.208 E16.26987
G1 X113.987 Y117.596 E16.28219
G1 X114.004 Y117.271 E16.28869
G1 X114.068 Y116.792 E16.29833
G1 X114.182 Y116.369 E16.30707
G1 X114.35 Y115.959 E16.31591
G1 X114.594 Y115.541 E16.32557
G1 X114.892 Y115.155 E16.33531
G1 X115.159 Y114.892 E16.34278
G1 X115.539 Y114.593 E16.35243
G1 X115.93 Y114.364 E16.36148
G1 X116.166 Y114.264 E16.36659
G1 X103.803 Y114.26 E16.61331
G1 X103.803 Y120.74 E16.74262
G1 X116.175 Y120.739 E16.98952
G0 F6000 X116.175 Y121
G0 X116.869 Y120.843
G0 X115.251 Y118.799
G0 X114.993 Y118.171
G0 X114.903 Y117.5
G0 X114.953 Y117.121
G0 X115.464 Y114.982
G0 X115.183 Y114.617
G1 F1200 X115.026 Y114.46 E16.99395
G0 F6000 X114.883 Y114.883
G1 F1200 X114.46 Y114.46 E17.00589
G0 F6000 X113.895 Y114.46
G1 F1200 X114.617 Y115.182 E17.02627
G0 F6000 X114.38 Y115.512
G1 F1200 X113.329 Y114.46 E17.05594
G0 F6000 X112.763 Y114.46
G1 F1200 X114.172 Y115.87 E17.09572
G0 F6000 X114.006 Y116.269
G1 F1200 X112.198 Y114.46 E17.14676
G0 F6000 X111.632 Y114.46
G1 F1200 X113.883 Y116.712 E17.2103
G0 F6000 X113.812 Y117.206
G1 F1200 X111.066 Y114.46 E17.2878
