;FLAVOR:Marlin
;TIME:7944
;Filament used: 8.18928m
;Layer height: 0.32
;MINX:89.349
;MINY:97.463
;MINZ:0.12
;MAXX:145.651
;MAXY:140.5
;MAXZ:40.12
;Generated with Cura_SteamEngine 5.2.2
M140 S50
M105
M190 S50
M104 S210
M105
M109 S210
M82 ;absolute extrusion mode
; Ender 3 Custom Start G-code
G92 E0 ; Reset Extruder
G28 ; Home all axes
G1 Z2.0 F3000 ; Move Z Axis up little to prevent scratching of Heat Bed
G1 X0.1 Y20 Z0.3 F5000.0 ; Move to start position
G1 X0.1 Y200.0 Z0.3 F1500.0 E15 ; Draw the first line
G1 X0.4 Y200.0 Z0.3 F5000.0 ; Move to side a little
G1 X0.4 Y20 Z0.3 F1500.0 E30 ; Draw the second line
G92 E0 ; Reset Extruder
G1 Z2.0 F3000 ; Move Z Axis up little to prevent scratching of Heat Bed
G1 X5 Y20 Z0.3 F5000.0 ; Move over to prevent blob squish
G92 E0
G92 E0
G1 F2700 E-5
;LAYER_COUNT:126
;LAYER:0
M107
G0 F6000 X92.553 Y100.758 Z0.12
;TYPE:SKIRT
G1 F2700 E0
G1 F1200 X93.242 Y100.122 E0.01871
G1 X93.982 Y99.546 E0.03743
G1 X94.769 Y99.036 E0.05614
G1 X95.597 Y98.594 E0.07487
G1 X96.459 Y98.224 E0.09359
G1 X97.349 Y97.93 E0.1123
G1 X98.261 Y97.712 E0.13101
G1 X99.189 Y97.572 E0.14974
G1 X100.079 Y97.514 E0.16754
G1 X100.752 Y97.5 E0.18097
G1 X107.176 Y97.5 E0.30917
G1 X108.698 Y97.488 E0.33954
G1 X110.19 Y97.465 E0.36932
G1 X124.728 Y97.463 E0.65944
G1 X126.728 Y97.49 E0.69936
G1 X128.127 Y97.5 E0.72728
G1 X134.102 Y97.501 E0.84651
G1 X134.8 Y97.511 E0.86044
G1 X135.736 Y97.565 E0.87915
G1 X136.664 Y97.697 E0.89786
G1 X137.578 Y97.909 E0.91658
G1 X138.47 Y98.198 E0.9353
G1 X139.335 Y98.561 E0.95402
G1 X140.165 Y98.997 E0.97273
G1 X140.956 Y99.502 E0.99145
G1 X141.7 Y100.073 E1.01017
G1 X142.393 Y100.705 E1.02889
G1 X143.03 Y101.393 E1.0476
G1 X143.605 Y102.134 E1.06632
G1 X144.116 Y102.92 E1.08502
G1 X144.558 Y103.748 E1.10375
G1 X144.927 Y104.61 E1.12247
G1 X145.222 Y105.5 E1.14118
G1 X145.44 Y106.412 E1.15989
G1 X145.58 Y107.34 E1.17862
G1 X145.638 Y108.198 E1.19578
G1 X145.651 Y108.825 E1.2083
G1 X145.651 Y115.933 E1.35014
G1 X145.625 Y117.801 E1.38743
G1 X145.625 Y120.42 E1.43969
G1 X145.649 Y121.589 E1.46302
G1 X145.651 Y128.883 E1.60858
G1 X145.642 Y129.624 E1.62337
G1 X145.591 Y130.56 E1.64208
G1 X145.46 Y131.489 E1.6608
G1 X145.25 Y132.403 E1.67952
G1 X144.964 Y133.296 E1.69823
G1 X144.602 Y134.161 E1.71694
G1 X144.168 Y134.993 E1.73567
G1 X143.664 Y135.784 E1.75439
G1 X143.096 Y136.53 E1.7731
G1 X142.465 Y137.224 E1.79182
G1 X141.778 Y137.862 E1.81053
G1 X141.039 Y138.439 E1.82924
G1 X140.253 Y138.952 E1.84797
G1 X139.427 Y139.395 E1.86667
G1 X138.566 Y139.767 E1.88539
G1 X137.676 Y140.064 E1.90411
G1 X136.764 Y140.284 E1.92283
G1 X135.837 Y140.425 E1.94155
G1 X134.921 Y140.486 E1.95987
G1 X134.247 Y140.5 E1.97332
G1 X122.243 Y140.498 E2.21287
G1 X121.261 Y140.483 E2.23247
G1 X118.836 Y140.414 E2.28088
G1 X116.349 Y140.412 E2.33052
G1 X115.182 Y140.449 E2.35382
G1 X112.385 Y140.5 E2.40964
G1 X100.914 Y140.499 E2.63856
G1 X100.216 Y140.49 E2.65249
G1 X99.28 Y140.438 E2.6712
G1 X98.351 Y140.306 E2.68992
G1 X97.437 Y140.096 E2.70864
G1 X96.544 Y139.809 E2.72736
G1 X95.679 Y139.446 E2.74608
G1 X94.848 Y139.012 E2.76479
G1 X94.057 Y138.508 E2.7835
G1 X93.312 Y137.938 E2.80222
G1 X92.618 Y137.307 E2.82094
G1 X91.981 Y136.62 E2.83964
G1 X91.404 Y135.88 E2.85836
G1 X90.892 Y135.094 E2.87708
G1 X90.449 Y134.267 E2.8958
G1 X90.078 Y133.406 E2.91451
G1 X89.782 Y132.516 E2.93323
G1 X89.563 Y131.604 E2.95195
G1 X89.422 Y130.677 E2.97066
G1 X89.361 Y129.766 E2.98888
G1 X89.349 Y129.133 E3.00152
G1 X89.349 Y122.042 E3.14302
G1 X89.375 Y120.196 E3.17987
G1 X89.375 Y117.58 E3.23207
G1 X89.351 Y116.411 E3.25541
G1 X89.349 Y109.046 E3.40238
G1 X89.359 Y108.352 E3.41623
G1 X89.413 Y107.415 E3.43496
G1 X89.546 Y106.487 E3.45367
G1 X89.757 Y105.573 E3.47239
G1 X90.046 Y104.681 E3.4911
G1 X90.41 Y103.816 E3.50983
G1 X90.846 Y102.986 E3.52854
G1 X91.351 Y102.196 E3.54725
G1 X91.921 Y101.451 E3.56597
G1 X92.553 Y100.758 E3.58469
G0 F6000 X92.945 Y100.933
G1 F1200 X93.631 Y100.318 E3.60307
G1 X94.367 Y99.766 E3.62143
G1 X95.148 Y99.279 E3.6398
G1 X95.969 Y98.861 E3.65819
G1 X96.823 Y98.517 E3.67656
G1 X97.703 Y98.248 E3.69492
G1 X98.603 Y98.056 E3.71329
G1 X99.517 Y97.943 E3.73167
G1 X100.089 Y97.913 E3.7431
G1 X100.752 Y97.9 E3.75633
G1 X107.179 Y97.9 E3.88459
G1 X108.707 Y97.888 E3.91508
G1 X110.196 Y97.865 E3.9448
G1 X124.728 Y97.863 E4.2348
G1 X126.719 Y97.89 E4.27454
G1 X128.124 Y97.9 E4.30258
G1 X134.096 Y97.901 E4.42176
G1 X134.794 Y97.911 E4.43569
G1 X135.713 Y97.964 E4.45406
G1 X136.624 Y98.097 E4.47243
G1 X137.52 Y98.308 E4.4908
G1 X138.394 Y98.596 E4.50916
G1 X139.241 Y98.959 E4.52755
G1 X140.052 Y99.394 E4.54592
G1 X140.822 Y99.898 E4.56428
G1 X141.546 Y100.467 E4.58266
G1 X142.218 Y101.097 E4.60104
G1 X142.833 Y101.782 E4.61941
G1 X143.386 Y102.518 E4.63778
G1 X143.873 Y103.299 E4.65615
G1 X144.29 Y104.12 E4.67453
G1 X144.635 Y104.974 E4.69291
G1 X144.904 Y105.854 E4.71127
G1 X145.096 Y106.755 E4.72966
G1 X145.209 Y107.668 E4.74802
G1 X145.238 Y108.209 E4.75883
G1 X145.251 Y108.825 E4.77112
G1 X145.251 Y115.928 E4.91287
G1 X145.225 Y117.796 E4.95015
G1 X145.225 Y120.428 E5.00268
G1 X145.249 Y121.597 E5.02601
G1 X145.251 Y128.878 E5.17131
G1 X145.242 Y129.619 E5.1861
G1 X145.191 Y130.538 E5.20447
G1 X145.06 Y131.449 E5.22283
G1 X144.851 Y132.346 E5.24121
G1 X144.565 Y133.221 E5.25958
G1 X144.204 Y134.068 E5.27796
G1 X143.77 Y134.88 E5.29633
G1 X143.268 Y135.652 E5.31471
G1 X142.701 Y136.377 E5.33308
G1 X142.073 Y137.05 E5.35145
G1 X141.389 Y137.666 E5.36982
G1 X140.654 Y138.221 E5.3882
G1 X139.874 Y138.709 E5.40656
G1 X139.054 Y139.129 E5.42494
G1 X138.201 Y139.475 E5.44331
G1 X137.321 Y139.746 E5.46169
G1 X136.421 Y139.94 E5.48006
G1 X135.508 Y140.055 E5.49842
G1 X134.911 Y140.087 E5.51035
G1 X134.247 Y140.1 E5.52361
G1 X122.248 Y140.098 E5.76306
G1 X121.272 Y140.083 E5.78254
G1 X118.847 Y140.014 E5.83095
G1 X116.367 Y140.012 E5.88044
G1 X115.315 Y140.046 E5.90145
G1 X112.385 Y140.1 E5.95993
G1 X100.919 Y140.099 E6.18875
G1 X100.221 Y140.09 E6.20268
G1 X99.302 Y140.038 E6.22105
G1 X98.391 Y139.907 E6.23941
G1 X97.495 Y139.697 E6.25778
G1 X96.62 Y139.41 E6.27616
G1 X95.773 Y139.048 E6.29454
G1 X94.961 Y138.614 E6.31291
G1 X94.19 Y138.112 E6.33127
G1 X93.465 Y137.544 E6.34965
G1 X92.792 Y136.915 E6.36803
G1 X92.177 Y136.231 E6.38639
G1 X91.623 Y135.496 E6.40476
G1 X91.135 Y134.715 E6.42314
G1 X90.716 Y133.895 E6.44151
G1 X90.37 Y133.042 E6.45988
G1 X90.1 Y132.162 E6.47825
G1 X89.907 Y131.261 E6.49664
G1 X89.793 Y130.348 E6.515
G1 X89.761 Y129.756 E6.52683
G1 X89.749 Y129.133 E6.53927
G1 X89.749 Y122.048 E6.68066
G1 X89.775 Y120.202 E6.7175
G1 X89.775 Y117.572 E6.76998
G1 X89.751 Y116.403 E6.79332
G1 X89.749 Y109.051 E6.94003
G1 X89.759 Y108.357 E6.95388
G1 X89.812 Y107.438 E6.97225
G1 X89.945 Y106.527 E6.99063
G1 X90.156 Y105.631 E7.009
G1 X90.445 Y104.757 E7.02737
G1 X90.808 Y103.911 E7.04574
G1 X91.243 Y103.099 E7.06412
G1 X91.747 Y102.329 E7.08249
G1 X92.316 Y101.605 E7.10086
G1 X92.945 Y100.933 E7.11923
G0 F6000 X93.336 Y101.112
G1 F1200 X94.018 Y100.519 E7.13727
G1 X94.75 Y99.99 E7.15529
G1 X95.526 Y99.527 E7.17332
G1 X96.339 Y99.135 E7.19134
G1 X97.184 Y98.816 E7.20936
G1 X98.054 Y98.574 E7.22738
G1 X98.942 Y98.409 E7.24541
G1 X100.099 Y98.313 E7.26857
G1 X100.752 Y98.3 E7.28161
G1 X107.182 Y98.3 E7.40993
G1 X108.716 Y98.288 E7.44054
G1 X110.202 Y98.265 E7.4702
G1 X124.728 Y98.263 E7.76008
G1 X126.71 Y98.29 E7.79964
G1 X128.121 Y98.3 E7.82779
G1 X134.09 Y98.301 E7.94691
G1 X134.788 Y98.311 E7.96084
G1 X135.69 Y98.364 E7.97887
G1 X136.583 Y98.496 E7.99689
G1 X137.461 Y98.707 E8.01491
G1 X138.317 Y98.995 E8.03293
G1 X139.144 Y99.357 E8.05095
G1 X139.936 Y99.792 E8.06898
G1 X140.687 Y100.294 E8.08701
G1 X141.39 Y100.861 E8.10503
G1 X142.04 Y101.488 E8.12305
G1 X142.632 Y102.17 E8.14108
G1 X143.162 Y102.901 E8.15909
G1 X143.624 Y103.677 E8.17712
G1 X144.017 Y104.49 E8.19514
G1 X144.335 Y105.335 E8.21316
G1 X144.578 Y106.205 E8.23118
G1 X144.743 Y107.093 E8.24921
G1 X144.838 Y108.221 E8.2718
G1 X144.851 Y108.826 E8.28387
G1 X144.851 Y115.922 E8.42548
G1 X144.825 Y117.79 E8.46276
G1 X144.825 Y120.437 E8.51559
G1 X144.851 Y121.814 E8.54307
G1 X144.851 Y128.873 E8.68394
G1 X144.842 Y129.614 E8.69873
G1 X144.791 Y130.516 E8.71676
G1 X144.661 Y131.409 E8.73477
G1 X144.452 Y132.288 E8.7528
G1 X144.166 Y133.144 E8.77081
G1 X143.805 Y133.972 E8.78883
G1 X143.373 Y134.765 E8.80685
G1 X142.872 Y135.517 E8.82489
G1 X142.307 Y136.221 E8.8429
G1 X141.681 Y136.873 E8.86094
G1 X141.001 Y137.466 E8.87894
G1 X140.27 Y137.997 E8.89697
G1 X139.496 Y138.462 E8.91499
G1 X138.683 Y138.856 E8.93302
G1 X137.839 Y139.176 E8.95104
G1 X136.97 Y139.421 E8.96905
G1 X136.082 Y139.588 E8.98709
G1 X134.901 Y139.687 E9.01074
G1 X134.247 Y139.7 E9.02379
G1 X122.254 Y139.698 E9.26312
G1 X121.283 Y139.683 E9.2825
G1 X118.859 Y139.614 E9.3309
G1 X116.354 Y139.612 E9.38089
G1 X115.302 Y139.646 E9.40189
G1 X112.385 Y139.7 E9.46011
G1 X100.924 Y139.699 E9.68883
G1 X100.226 Y139.69 E9.70276
G1 X99.325 Y139.639 E9.72077
G1 X98.431 Y139.507 E9.7388
G1 X97.553 Y139.298 E9.75681
G1 X96.696 Y139.011 E9.77485
G1 X95.869 Y138.65 E9.79286
G1 X95.076 Y138.217 E9.81089
G1 X94.325 Y137.716 E9.8289
G1 X93.621 Y137.15 E9.84693
G1 X92.97 Y136.524 E9.86495
G1 X92.377 Y135.843 E9.88297
G1 X91.847 Y135.112 E9.90099
G1 X91.383 Y134.337 E9.91902
G1 X90.989 Y133.524 E9.93705
G1 X90.669 Y132.68 E9.95506
G1 X90.425 Y131.81 E9.97309
G1 X90.259 Y130.922 E9.99112
G1 X90.161 Y129.746 E10.01467
G1 X90.149 Y129.132 E10.02693
G1 X90.149 Y122.053 E10.16819
G1 X90.175 Y120.207 E10.20504
G1 X90.175 Y117.563 E10.2578
G1 X90.149 Y116.186 E10.28529
G1 X90.149 Y109.057 E10.42755
G1 X90.159 Y108.363 E10.4414
G1 X90.212 Y107.461 E10.45943
G1 X90.345 Y106.568 E10.47745
G1 X90.556 Y105.69 E10.49547
G1 X90.843 Y104.834 E10.51349
G1 X91.206 Y104.007 E10.53151
G1 X91.64 Y103.215 E10.54954
G1 X92.143 Y102.465 E10.56756
G1 X92.71 Y101.762 E10.58558
G1 X93.336 Y101.112 E10.60359
G1 F2700 E5.60359
G0 F6000 X100.548 Y107.835
G0 X100.548 Y108.7
;TYPE:SUPPORT-INTERFACE
G1 F2700 E10.60359
G1 F1200 X101.563 Y108.7 E10.62385
G1 X101.564 Y116.3 E10.77551
G1 X100.549 Y116.3 E10.79577
G1 X100.548 Y108.7 E10.94743
G1 F2700 E5.94743
G0 F6000 X99.684 Y108.701
G0 X99.696 Y117.153
G0 X100.548 Y120.835
G0 X100.548 Y121.7
G1 F2700 E10.94743
G1 F1200 X101.563 Y121.7 E10.96769
G1 X101.564 Y129.3 E11.11935
G1 X100.549 Y129.3 E11.13961
G1 X100.548 Y121.7 E11.29128
G1 F2700 E6.29128
G0 F6000 X133.436 Y121.7
G1 F2700 E11.29128
G1 F1200 X134.451 Y121.7 E11.31153
G1 X134.452 Y129.3 E11.4632
G1 X133.437 Y129.3 E11.48345
G1 X133.436 Y121.7 E11.63512
G1 F2700 E6.63512
G0 F6000 X133.436 Y120.835
G0 X133.437 Y117.165
G0 X133.437 Y116.3
G1 F2700 E11.63512
G1 F1200 X133.436 Y108.7 E11.78679
G1 X134.451 Y108.7 E11.80704
G1 X134.452 Y116.3 E11.95871
G1 X133.437 Y116.3 E11.97896
G0 F6000 X133.636 Y114.134
G1 F1200 X134.25 Y113.519 E11.99631
G0 F6000 X134.251 Y113.886
G1 F1200 X133.635 Y113.27 E12.01369
G0 F6000 X133.635 Y110.74
G1 F1200 X134.249 Y110.126 E12.03102
G0 F6000 X134.25 Y110.491
G1 F1200 X133.634 Y109.875 E12.0484
G1 F2700 E7.0484
G0 F6000 X133.635 Y123.453
G1 F2700 E12.0484
G1 F1200 X134.251 Y124.068 E12.06577
G0 F6000 X134.25 Y123.701
G1 F1200 X133.636 Y124.316 E12.08312
G0 F6000 X133.636 Y126.847
G1 F1200 X134.251 Y127.463 E12.10049
G0 F6000 X134.25 Y127.096
G1 F1200 X133.636 Y127.709 E12.1178
G1 F2700 E7.1178
G0 F6000 X132.572 Y127.71
G0 X120.597 Y127.944
G0 X114.497 Y127.839
G0 X102.428 Y128.515
G0 X101.363 Y128.516
G1 F2700 E12.1178
G1 F1200 X100.747 Y127.9 E12.13519
G0 F6000 X100.748 Y126.656
G1 F1200 X101.363 Y126.042 E12.15253
G0 F6000 X101.363 Y125.122
G1 F1200 X100.747 Y124.506 E12.16991
G0 F6000 X100.748 Y123.262
G1 F1200 X101.363 Y122.648 E12.18726
G1 F2700 E7.18726
G0 F6000 X101.124 Y116.099
G1 F2700 E12.18726
G1 F1200 X101.363 Y115.859 E12.19402
G0 F6000 X101.364 Y114.94
G1 F1200 X100.748 Y114.325 E12.21139
G0 F6000 X100.749 Y113.079
G1 F1200 X101.363 Y112.466 E12.2287
G0 F6000 X101.363 Y111.546
G1 F1200 X100.747 Y110.93 E12.24609
G0 F6000 X100.748 Y109.686
G1 F1200 X101.363 Y109.071 E12.26344
G1 F2700 E7.26344
;MESH:CNC_v2_Barra8mm_TEST.stl
G0 F6000 X103.443 Y109.071
G0 X104.894 Y110.076
G0 X104.615 Y110.072
G0 X104.615 Y114.928
G0 X112.14 Y115.099
;TYPE:WALL-INNER
G1 F2700 E12.26344
G1 F1200 X112.213 Y114.866 E12.26831
G1 X112.696 Y113.815 E12.2914
G1 X112.843 Y113.602 E12.29656
G1 X113.511 Y112.778 E12.31773
G1 X113.769 Y112.532 E12.32484
G1 X114.629 Y111.9 E12.34614
G1 X114.937 Y111.729 E12.35317
G1 X115.919 Y111.335 E12.37429
G1 X116.199 Y111.255 E12.3801
G1 X117.5 Y111.088 E12.40628
G1 X118.736 Y111.245 E12.43114
G1 X119.079 Y111.334 E12.43821
G1 X120.06 Y111.727 E12.4593
G1 X120.37 Y111.899 E12.46638
G1 X121.231 Y112.532 E12.4877
G1 X121.488 Y112.778 E12.4948
G1 X122.252 Y113.717 E12.51896
G1 X122.786 Y114.864 E12.54421
G1 X122.859 Y115.099 E12.54912
G1 X130.558 Y115.1 E12.70276
G1 X130.558 Y112.5 E12.75465
G1 X130.558 Y109.9 E12.80653
G1 X125.344 Y109.9 E12.91058
G1 X125.242 Y109.864 E12.91274
G1 X109.754 Y109.863 E13.22182
G1 X109.656 Y109.9 E13.22391
G1 X104.443 Y109.9 E13.32794
G1 X104.443 Y115.1 E13.43171
G1 X112.14 Y115.099 E13.58532
G0 F6000 X112.461 Y115.499
G1 F1200 X112.5 Y115.276 E13.58983
G1 X112.577 Y115.033 E13.59492
G1 X113.083 Y113.94 E13.61896
G1 X113.822 Y113.03 E13.64235
G1 X114.006 Y112.854 E13.64743
G1 X114.866 Y112.222 E13.66873
G1 X115.086 Y112.1 E13.67375
G1 X116.183 Y111.66 E13.69734
G1 X117.373 Y111.507 E13.72128
G1 X117.627 Y111.507 E13.72635
G1 X118.685 Y111.642 E13.74763
G1 X118.93 Y111.706 E13.75269
G1 X119.912 Y112.099 E13.7738
G1 X120.133 Y112.221 E13.77883
G1 X120.994 Y112.855 E13.80017
G1 X121.178 Y113.03 E13.80524
G1 X121.914 Y113.936 E13.82853
G1 X122.423 Y115.031 E13.85263
G1 X122.499 Y115.275 E13.85773
G1 X122.538 Y115.499 E13.86227
G1 X130.958 Y115.5 E14.0303
G1 X130.958 Y112.5 E14.09017
G1 X130.958 Y109.5 E14.15003
G1 X125.386 Y109.5 E14.26123
G1 X125.286 Y109.464 E14.26335
G1 X109.711 Y109.463 E14.57417
G1 X109.609 Y109.5 E14.57633
G1 X104.043 Y109.5 E14.68741
G1 X104.043 Y115.5 E14.80714
G1 X112.461 Y115.499 E14.97513
G0 F6000 X112.796 Y115.899
G1 F1200 X112.907 Y115.271 E14.98786
G1 X113.421 Y114.159 E15.01231
G1 X114.182 Y113.222 E15.0364
G1 X115.163 Y112.501 E15.06069
G1 X116.285 Y112.05 E15.08482
G1 X117.5 Y111.894 E15.10927
G1 X118.712 Y112.049 E15.13365
G1 X119.834 Y112.498 E15.15777
G1 X120.818 Y113.222 E15.18215
G1 X121.576 Y114.154 E15.20612
G1 X122.091 Y115.264 E15.23054
G1 X122.203 Y115.899 E15.24341
G1 X131.358 Y115.9 E15.42611
G1 X131.358 Y112.5 E15.49396
G1 X131.358 Y109.1 E15.56181
G1 X125.418 Y109.095 E15.68035
G1 X125.33 Y109.064 E15.68221
G1 X109.668 Y109.063 E15.99476
G1 X109.581 Y109.095 E15.99661
G1 X103.643 Y109.1 E16.11511
G1 X103.643 Y115.9 E16.25081
G1 X112.796 Y115.899 E16.43347
G0 F6000 X113.132 Y116.299
;TYPE:WALL-OUTER
G1 F1200 X113.292 Y115.393 E16.45183
G1 X113.756 Y114.385 E16.47398
G1 X114.458 Y113.515 E16.49629
G1 X115.359 Y112.853 E16.5186
G1 X116.406 Y112.437 E16.54108
G1 X117.5 Y112.298 E16.56309
G1 X118.608 Y112.439 E16.58538
G1 X119.64 Y112.852 E16.60756
G1 X120.541 Y113.515 E16.62988
G1 X121.242 Y114.382 E16.65213
G1 X121.706 Y115.388 E16.67424
G1 X121.868 Y116.299 E16.69271
G1 X131.758 Y116.3 E16.89007
G1 X131.758 Y112.5 E16.96591
G1 X131.758 Y108.7 E17.04174
G1 X125.472 Y108.699 E17.16718
G1 X125.383 Y108.664 E17.16909
G1 X109.616 Y108.664 E17.48374
G1 X109.527 Y108.699 E17.48565
G1 X103.243 Y108.7 E17.61105
G1 X103.243 Y116.3 E17.76272
